X:117
T:Grande Chaine, La
R:reel 32
O:england
D:Boys of the Lough, can't remember which
M:4/4
L:1/8
Q:180
K:G
D2|B3 c BAGB|d2 d2 BGBd|cdcB AFAc|dedc BGGA|
B3 c BAGB|d2 d2 BGBd|cdcB AFDF|G3 G G2:|]
z2|gagf efge|d2 d2 BGBd|cdcB AFAc|dedc BG G2|
gagf efge|d2 d2 BGBd|cdcB AFDF|G3 G G2:|]

